X: 54
T:Debka Daluna
C: Arabic
F: http://www.youtube.com/watch?v=0-Zoc_jhv8A
O:Israel
D: Debka Israeli Folk Dances (Tikva Records T-100)
I:choreographer Y.Ashriel, 1960
L:1/8
M:2/4
Q:1/4=96
K:Am
|:"Am"Ae/e/ ee | Ae/e/ ed    | c2 "Dm"d2   | "Am"cd e/d/c/B/     |\
  "Dm"Ad "Am"cB| c/d/c/B/ A2 :|
  "C"GA "Am"AA | "C"Gc "G"B>A| "C"Gc "Am"Bc| "G"d c/B/ "Am"A2    |\
  "C"GA "Am"AA | "C"Gc "G"B>A| "C"Gc "Am"Bc| "Gm"d/_B/B/A/ "Am"A2|



